lib/brands/icons/solr.svg

<svg xmlns="http://www.w3.org/2000/svg" fill="none" aria-hidden="true" viewBox="0 0 48 48"><g id="solr-Icon"><g id="Group"><path id="Vector" fill="#C7402B" d="M37.1119 11.6994L19.389 30.8601L41.6624 20.584C41.0035 17.1844 39.3901 14.1274 37.1119 11.6994ZM23.9622 6C21.5067 6 19.1673 6.49248 17.0341 7.38132L14.656 27.4212L26.5395 6.18636C25.6974 6.06552 24.8376 6 23.9622 6ZM41.839 21.688L20.7336 33.499L40.535 31.1493C41.4738 28.9662 41.9959 26.5612 41.9959 24.0338C41.9959 23.2379 41.9389 22.4565 41.839 21.688ZM34.0578 38.9786C36.416 37.3825 38.3741 35.2417 39.7571 32.7385L21.1968 36.4243L34.0578 38.9786ZM27.6262 6.37326L17.2948 28.766L36.4598 11.0398C34.0564 8.72773 31.0167 7.07305 27.6262 6.37326ZM25.4695 42C27.4663 41.8346 29.3707 41.3464 31.1301 40.5832L20.7337 39.3496L25.4695 42ZM7.52374 16.6202C6.71278 18.4156 6.18699 20.3657 6.00439 22.4162L8.80517 27.4216L7.52374 16.6202ZM15.4714 8.12273C12.9268 9.48364 10.7485 11.4364 9.11688 13.7978L11.7307 26.958L15.4714 8.12273Z"/></g></g></svg>

<svg xmlns="http://www.w3.org/2000/svg" fill="none" aria-hidden="true" viewBox="0 0 48 48"><path fill="#C7402B" d="M37.112 11.7 19.389 30.86l22.273-10.276a17.98 17.98 0 0 0-4.55-8.885ZM23.962 6c-2.455 0-4.795.492-6.928 1.381l-2.378 20.04L26.539 6.186A18.128 18.128 0 0 0 23.962 6ZM41.84 21.688 20.734 33.499l19.8-2.35a17.968 17.968 0 0 0 1.305-9.461Zm-7.781 17.29a18.124 18.124 0 0 0 5.699-6.24l-18.56 3.686 12.86 2.555ZM27.626 6.374 17.295 28.766 36.46 11.04a17.987 17.987 0 0 0-8.834-4.667ZM25.47 42a17.92 17.92 0 0 0 5.661-1.417L20.734 39.35 25.469 42ZM7.524 16.62a17.92 17.92 0 0 0-1.52 5.796l2.801 5.006L7.524 16.62Zm7.947-8.497a18.119 18.119 0 0 0-6.354 5.675l2.614 13.16 3.74-18.835Z"/></svg>
